X:1
T:Title
%%score { ( 1 3 ) | ( 2 4 ) }
L:1/8
Q:1/4=110
M:3/4
K:F
V:1 treble nm="Grand Piano"
V:3 treble 
V:2 bass 
V:4 bass 
V:1
 A4 A2 | c2 z2 z2 | z2 z2 .[CA]2 | F4 z2 | A4 G2 | F4 F2 | F2 [EG]2 [CFA]2 | c2 z2 z2 | %8
w: Karl~Julius~Hermann~Grobe *||||||||
 [G,CG]4 [G,=B,F]2 | [G,CE]4 [A,CF]2 | G2 z2 z2 | [CGB]4 A2 | A4 z2 | G2 z2 z2 | F2 E2 [=B,D]2 | %15
w: |||||||
 C4 z2 | G4 [CG]2 | c2 z2 z2 | D2 z2 z2 | [CA]6 | A4 [_EA]2 | [Dd]4 .B2 | [CF]4 z2 | [A,CF]6 |] %24
w: |||||||||
V:2
 [F,C]4 [F,C]2 | z2[K:treble] B2[K:bass] B,,2 | C,4 z B, | [F,A,C]4 z2 | [F,CF]4 [F,B,E]2 | %5
 [F,A,C]4 [B,D]2 | A,2 z2 z2 | z2[K:treble] B2[K:bass] C,2 | E,4 D,2 | C,2 B,,2 A,,2 | %10
 z2[K:treble] c2[K:bass] E,2 | F,4 [F,CF]2 | [F,D]2 [E,^C]2 D,2 | G,2 _A,2 [=A,C]2 | %14
 [F,A,D]2 [G,C]2 [G,,F,]2 | [C,E,]4 z2 | [C,E,C]4 [B,,E,]2 | z2 A2 A,,2 | B,,2 A,,2 [G,,E,]2 | %19
 [F,,F,]6 | [F,C]4 [C,F,]2 | F,2 z2 G,B, | z2 G,2 C,2 | F,,6 |] %24
V:3
 x6 | D4 [B,DG]2 | [A,CF]4 E-[EG] | x6 | x6 | x6 | x6 | [CE]4 [CEG]2 | x6 | x6 | [G,C]4 [CGB]2 | %11
 x6 | z2 G2 [DFA]2 | [=B,D]2- [B,DF]2 E2 | x6 | x6 | x6 | C4 [F,CF]2 | [F,F]2- [F,CF]2 [CG]2 | x6 | %20
 x6 | z2 ^F,2 D-[DG] | A,2 z2 [G,CE]2 | x6 |] %24
V:4
 x6 | [B,,F,]4[K:treble][K:bass] z2 | z2 z2 C,2 | x6 | x6 | x6 | C2- [G,C]2 F,2 | %7
 C,4[K:treble][K:bass] z2 | x6 | x6 | E,4[K:treble][K:bass] z2 | x6 | x6 | x6 | x6 | x6 | x6 | %17
 [A,,F,]4 z2 | x6 | x6 | x6 | B,,4 B,,2 | C,4 z2 | x6 |] %24

